svgs/thin/sickle.svg

<svg xmlns="http://www.w3.org/2000/svg" viewBox="0 0 512 512"><!--! Font Awesome Pro 6.3.0 by @fontawesome - https://fontawesome.com License - https://fontawesome.com/license (Commercial License) Copyright 2023 Fonticons, Inc. --><path d="M511.7 153.1C501 100.2 446.1 0 318.7 0C229.1 0 152.8 61.41 133.3 149.3C122.7 196.9 134.5 249.1 165.4 292.7C167.1 296.3 172.1 297.1 176.6 294.5c3.594-2.562 4.438-7.562 1.875-11.19C150.1 243.5 139.3 195.9 148.9 152.8c17.88-80.54 87.72-136.8 169.8-136.8c117.9 0 167.5 91.75 177.7 140c-13-17.13-29.22-31.03-48.13-41.22c-45.22-24.88-102.9-23.35-147 3.969c-66.5 41.03-88.19 123.7-51.1 190.5l-29.66 29.03c-3.156 3.094-3.219 8.156-.125 11.31c1.562 1.594 3.656 2.406 5.719 2.406c2.033 0 4.033-.75 5.596-2.281l34.13-33.41c2.658-2.625 3.189-6.719 1.219-9.906c-36.81-60.13-18.09-136.6 42.63-174c39.28-24.35 90.69-25.78 130.1-3.562c16.94 9.156 31.41 21.56 43.06 36.88c4.5 5.938 12.22 7.906 18.94 4.75C509.5 167.4 513.1 160.4 511.7 153.1zM196.5 377.3C196.5 377.3 196.6 377.3 196.5 377.3S196.6 377.3 196.5 377.3L117.6 298.4c-3.156-3.156-8.219-3.094-11.31 0c-3.127 3.125-3.127 8.189 0 11.31l11.4 11.38l-106.8 106.8c-14.47 14.5-14.47 38.07 0 52.57l20.63 20.63C38.73 508.4 48.26 512 57.76 512c9.533 0 19.03-3.594 26.28-10.84L190.9 394.3l11.44 11.43c1.562 1.562 3.625 2.344 5.656 2.344c2.062 0 4.094-.7813 5.656-2.344c3.125-3.125 3.125-8.189 0-11.31L196.5 377.3zM72.73 489.8c-8.25 8.189-21.69 8.252-29.94 0L22.17 469.2c-8.221-8.252-8.221-21.69 0-29.94l106.8-106.8l50.58 50.52L72.73 489.8z"/></svg>

<svg xmlns="http://www.w3.org/2000/svg" viewBox="0 0 512 512"><!-- Font Awesome Pro 6.0.0-alpha2 by @fontawesome - https://fontawesome.com License - https://fontawesome.com/license (Commercial License) --><path d="M511.687 153.135C501.031 100.162 446.998 0 318.742 0C229.082 0 152.828 61.41 133.295 149.322C122.732 196.887 134.451 249.141 165.422 292.674C167.984 296.268 172.953 297.08 176.609 294.549C180.203 291.986 181.047 286.986 178.484 283.361C150.109 243.547 139.326 195.949 148.922 152.791C166.797 72.254 236.645 16.002 318.742 16.002C436.623 16.002 486.25 107.756 496.469 156.01C483.469 138.883 467.248 124.977 448.342 114.789C403.121 89.912 345.398 91.443 301.303 118.758C234.801 159.791 213.111 242.422 250.207 309.27L220.549 338.303C217.393 341.396 217.33 346.459 220.424 349.615C221.986 351.209 224.08 352.021 226.143 352.021C228.176 352.021 230.176 351.271 231.738 349.74L265.863 316.332C268.521 313.707 269.053 309.613 267.082 306.426C230.27 246.297 248.988 169.854 309.709 132.383C348.992 108.037 400.402 106.6 440.686 128.82C457.623 137.977 472.092 150.385 483.75 165.697C488.25 171.635 495.969 173.604 502.688 170.447C509.5 167.385 513.125 160.416 511.687 153.135ZM196.564 377.311C196.555 377.301 196.559 377.283 196.549 377.273S196.521 377.268 196.512 377.258L117.576 298.424C114.42 295.268 109.357 295.33 106.264 298.424C103.137 301.549 103.137 306.613 106.264 309.738L117.662 321.123L10.852 427.963C-3.617 442.465 -3.617 466.029 10.852 480.529L31.479 501.156C38.729 508.406 48.26 512 57.76 512C67.293 512 76.793 508.406 84.043 501.156L190.887 394.252L202.33 405.682C203.893 407.244 205.955 408.025 207.986 408.025C210.049 408.025 212.08 407.244 213.643 405.682C216.768 402.557 216.768 397.492 213.643 394.367L196.564 377.311ZM72.73 489.842C64.48 498.031 51.041 498.094 42.791 489.842L22.166 469.217C13.945 460.965 13.945 447.527 22.166 439.277L128.982 332.428L179.564 382.945L72.73 489.842Z"/></svg>
